!!!!SEGMENT: pl-kk--kk-i-7--006_pekiel-bartlomiej--ave-maria.krn
!!!cenid: 16xx:796
!!!COM: Pękiel, Bartłomiej
!!!COM-rismid: pe30105642
!!!CDT: <1633-~1670
!!!CNT: Polish
!!!OTL: Ave Maria
!!!PDT:
!!!AGN: Sacred
!!!SMS-siglum: PL-Kk
!!!SMS-shelfmark: Kk.I.7
!!!SMS-shelfwork: 006 W
!!!SMS-variant:
!!!SMS-altvar:
!!!NIFC-rismid: 300258083
!!!URL-scan: http://repozytorium.nifc.pl/skany/pl-kk-nut--i-7
!!!ONB-nifc: UWAGA: C (skan 0006-0007, s.7-8), A (0093-0094, s.7-8), T(0171, s.6-7), B(0259, s.8). Następny utwór: Sanctus
**kern	**text	**text	**kern	**text	**text	**kern	**text	**text	**kern	**text	**text
*part4	*part4	*part4	*part3	*part3	*part3	*part2	*part2	*	*part1	*part1	*part1
*staff4	*staff4	*staff4	*staff3	*staff3	*staff3	*staff2	*staff2	*	*staff1	*staff1	*staff1
*Ibass	*	*	*Itenor	*	*	*Ialto	*	*	*Isoprn	*	*
*I"[BASSUS.]	*	*	*I"[TENOR.]	*	*	*I"[ALTVS.]	*	*	*I"[CANTVS.]	*	*
*I'B	*	*	*I'T	*	*	*I'A	*	*	*I'S	*	*
*clefF4	*	*	*clefC4	*	*	*clefC4	*	*	*clefC3	*	*
*k[b-]	*	*	*k[b-]	*	*	*k[b-]	*	*	*k[b-]	*	*
*g:	*	*	*g:	*	*	*g:	*	*	*g:	*	*
*M2/1	*	*	*M2/1	*	*	*M2/1	*	*	*M2/1	*	*
*met(c|)	*	*	*met(c|)	*	*	*met(c|)	*	*	*met(c|)	*	*
=1-	=1-	=1-	=1-	=1-	=1-	=1-	=1-	=1-	=1-	=1-	=1-
*all\right	*	*	*all\right	*	*	*all\right	*	*	*all\right	*	*
!LO:TX:a:t=P:problem:znaki B- BB-	!	!	!	!	!	!	!	!	!	!	!
!LO:TX:a:t=P:problem:kreska pseudotaktowa	!	!	!	!	!	!	!	!	!	!	!
0r	.	.	00r	.	.	1d	A-	.	00r	.	.
.	.	.	.	.	.	2G/	-ue	.	.	.	.
*	*	*	*	*	*	*2\right	*	*	*	*	*
!	!	!	!	!	!	!LO:TX:a:t=P:problem:kreska pseudotaktowa	!	!	!	!	!
.	.	.	.	.	.	2B-\	Ma-	.	.	.	.
=2-	=2-	=2-	=2-	=2-	=2-	=2-	=2-	=2-	=2-	=2-	=2-
1D	A-	.	.	.	.	1A	-ri-	.	.	.	.
2GG/	-ue	.	.	.	.	2B-\	-a	.	.	.	.
!	!	!	!	!	!	!LO:TX:a:t=P:problem:kreska pseudotaktowa	!	!	!	!	!
2BB-/	Ma-	.	.	.	.	2G/	Ma-	.	.	.	.
=3-	=3-	=3-	=3-	=3-	=3-	=3-	=3-	=3-	=3-	=3-	=3-
!LO:TX:a:t=P:problem:kreska pseudotaktowa	!	!	!LO:TX:a:t=P:problem:kreska pseudotaktowa	!	!	!	!	!	!LO:TX:a:t=P:problem:kreska pseudotaktowa	!	!
1AA	-ri-	.	00r	.	.	1c	-ri-	.	1r	.	.
2GG,</	-a	.	.	.	.	(2B-\	.	.	1g	A-	.
*2\right	*ij	*	*	*	*	*	*	*	*	*	*
!LO:TX:a:t=P:problem:kreska pseudotaktowa	!	!	!	!	!	!	!	!	!	!	!
2G\	A-	.	.	.	.	4B-\)	.	.	.	.	.
!	!	!	!	!	!	!LO:TX:a:t=P:problem:kreska pseudotaktowa	!	!	!	!	!
.	.	.	.	.	.	4A\	-a	.	.	.	.
=4-	=4-	=4-	=4-	=4-	=4-	=4-	=4-	=4-	=4-	=4-	=4-
*	*	*	*	*	*	*	*	*	*2\right	*	*
2G\	-ue	.	.	.	.	4B-\	A-	.	2d\	-ue	.
.	.	.	.	.	.	4c\	-ue	.	.	.	.
!LO:TX:a:t=P:problem:kreska pseudotaktowa	!	!	!	!	!	!	!	!	!LO:TX:a:t=P:problem:kreska pseudotaktowa	!	!
2F\	Ma-	.	.	.	.	1d	Ma-	.	2f\	Ma-	.
2G\	-ri-	.	.	.	.	.	.	.	1e	-ri-	.
!	!	!	!	!	!	!LO:TX:t=P:problem:♯ above	!	!	!	!	!
2A\	.	.	.	.	.	2c#X\	-ri-	.	.	.	.
=5-	=5-	=5-	=5-	=5-	=5-	=5-	=5-	=5-	=5-	=5-	=5-
!	!	!	!	!	!	!LO:TX:a:t=P:problem:kreska pseudotaktowa	!	!	!	!	!
2B-\	a	.	1G	A-	.	1d	-a	.	2d\	-a	.
*	*Xij	*	*	*	*	*	*	*	*	*ij	*
!LO:TX:a:t=P:problem:kreska pseudotaktowa	!	!	!	!	!	!	!	!	!LO:TX:a:t=P:problem:kreska pseudotaktowa	!	!
2B-\	Ma-	.	.	.	.	.	.	.	2g\	A-	.
!	!	!	!	!	!	!LO:TX:a:t=P:problem:kreska pseudotaktowa	!	!	!	!	!
4A\	-ri-	.	2D/	-ue	.	00r	.	.	4f\	-ve	.
4G\	.	.	.	.	.	.	.	.	4e\	.	.
!	!	!	!LO:TX:a:t=P:problem:kreska pseudotaktowa	!	!	!	!	!	!	!	!
4F\	.	.	2F/	Ma-	.	.	.	.	1d\	Ma-	.
8E\L	.	.	.	.	.	.	.	.	.	.	.
!LO:TX:a:t=P:problem:kreska pseudotaktowa	!	!	!	!	!	!	!	!	!	!	!
8D\J	.	.	.	.	.	.	.	.	.	.	.
=6-	=6-	=6-	=6-	=6-	=6-	=6-	=6-	=6-	=6-	=6-	=6-
1G	.	.	1E	-ri-	.	.	.	.	.	.	.
.	.	.	.	.	.	.	.	.	2c#X/	-ri-	.
!	!	!	!	!	!	!	!	!	!LO:TX:a:t=P:problem:kreska pseudotaktowa	!	!
2F#X\	-a	.	2D/	-a	.	.	.	.	1d	-a	.
!LO:TX:a:t=P:problem:kreska pseudotaktowa	!	!	!LO:TX:a:t=P:problem:kreska pseudotaktowa	!	!	!	!	!	!	!	!
*	*	*	*2\right	*ij	*	*	*	*	*	*Xij	*
2D/	A-	.	2d\	A-	.	.	.	.	.	.	.
=7-	=7-	=7-	=7-	=7-	=7-	=7-	=7-	=7-	=7-	=7-	=7-
!	!	!	!	!	!	!	!	!	!LO:TX:a:t=P:problem:kreska pseudotaktowa	!	!
4E\	-ue	.	2G/	-ue	.	.	.	.	1r	.	.
4Fny\	Ma-	.	.	.	.	.	.	.	.	.	.
1G	-ri-	.	2B-\	Ma-	.	.	.	.	.	.	.
*	*	*	*	*	*	*	*ij	*	*	*	*
.	.	.	1A	-ri-	.	1D	A-	.	1d	A-	.
!LO:TX:t=P:problem:♯ above	!	!	!	!	!	!	!	!	!	!	!
2F#X\	.	.	.	.	.	.	.	.	.	.	.
=8-	=8-	=8-	=8-	=8-	=8-	=8-	=8-	=8-	=8-	=8-	=8-
!LO:TX:a:t=P:problem:kreska pseudotaktowa	!	!	!LO:TX:a:t=P:problem:kreska pseudotaktowa	!	!	!	!	!	!	!	!
1G,<	-a	.	1G	-a	.	4E/	-ue	.	2G/	-ue	.
*	*	*	*	*Xij	*	*	*	*	*	*	*
.	.	.	.	.	.	4F/	Ma-	.	.	.	.
!	!	!	!	!	!	!	!	!	!LO:TX:a:t=P:problem:kreska pseudotaktowa	!	!
.	.	.	.	.	.	1G	-ri-	.	2B-/	Ma-	.
*	*ij	*	*	*	*	*	*	*	*	*	*
1D	A-	.	2rG	.	.	.	.	.	1A	-ri-	.
!	!	!	!	!	!	!LO:TX:a:t=P:problem:kreska pseudotaktowa	!	!	!	!	!
!	!	!	!	!	!	!LO:TX:a:t=P:problem:# above	!	!	!	!	!
.	.	.	2D/	A-	.	2F#X/	.	.	.	.	.
=9-	=9-	=9-	=9-	=9-	=9-	=9-	=9-	=9-	=9-	=9-	=9-
*	*	*	*	*	*	*lig	*	*	*	*	*
2GG/	-ue	.	4E/	-ve	.	1G	.	.	1G	-a	.
.	.	.	4F/	Ma-	.	.	.	.	.	.	.
!LO:TX:a:t=P:problem:kreska pseudotaktowa	!	!	!	!	!	!	!	!	!	!	!
!LO:SIC:v:t=custos A	!	!	!	!	!	!	!	!	!	!	!
2BB-/	Ma-	.	1G	-ri-	.	.	.	.	.	.	.
!LO:LB:g=original	!	!	!	!	!	!	!	!	!LO:TX:a:t=P:problem:kreska pseudotaktowa	!	!
1AA	-ri-	.	.	.	.	1A	.	.	1cny	gra-	.
!	!	!	!LO:TX:t=P:problem:♯ above	!	!	!	!	!	!	!	!
.	.	.	2F#X/	.	.	.	.	.	.	.	.
*	*	*	*	*	*	*Xlig	*	*	*	*	*
=10-	=10-	=10-	=10-	=10-	=10-	=10-	=10-	=10-	=10-	=10-	=10-
!	!	!	!LO:TX:a:t=P:problem:kreska pseudotaktowa	!	!	!	!	!	!	!	!
2GG/	-a	.	1G	-a	.	2D/	-a	.	2c/	-ti-	.
*	*Xij	*	*	*	*	*	*Xij	*	*	*	*
!	!	!	!	!	!	!LO:TX:a:t=P:problem:kreska pseudotaktowa	!	!	!	!	!
2.G\	gra-	.	.	.	.	2rF	.	.	2B-/	-a	.
!	!	!	!	!	!	!	!	!	!LO:TX:a:t=P:problem:kreska pseudotaktowa	!	!
.	.	.	0r	.	.	2r	.	.	1A	ple-	.
4G\	-ti-	.	.	.	.	.	.	.	.	.	.
2Fny\	-a	.	.	.	.	2.d\	Do-	.	.	.	.
=11-	=11-	=11-	=11-	=11-	=11-	=11-	=11-	=11-	=11-	=11-	=11-
1E-X	ple-	.	.	.	.	.	.	.	2G/	-na	.
.	.	.	.	.	.	4d\	-mi-	.	.	.	.
!	!	!	!	!	!	!LO:TX:a:t=P:problem:kreska pseudotaktowa	!	!	!	!	!
.	.	.	.	.	.	2cny\	-nus	.	2.g\	Do-	.
!LO:TX:a:t=P:problem:kreska pseudotaktowa	!	!	!	!	!	!LO:SIC:v:t=custos A	!	!	!	!	!
1D	-na	.	2r	.	.	2B-\	te-	.	.	.	.
.	.	.	.	.	.	.	.	.	4g\	-mi-	.
!	!	!	!	!	!	!LO:LB:g=original	!	!	!LO:TX:a:t=P:problem:kreska pseudotaktowa	!	!
!	!	!	!LO:TX:a:t=P:problem:kreska pseudotaktowa	!	!	!LO:TX:a:t=P:problem:kreska pseudotaktowa	!	!	!LO:SIC:v:t=custos e	!	!
.	.	.	2.d\	Do-	.	2A/	.	.	2f\	-nus	.
!	!	!	!	!	!	!	!	!	!LO:LB:g=original	!	!
=12-	=12-	=12-	=12-	=12-	=12-	=12-	=12-	=12-	=12-	=12-	=12-
*	*	*	*	*	*	*	*	*	*lig	*	*
0r	.	.	.	.	.	2G/	.	.	1e	te-	.
.	.	.	4d\	-mi-	.	.	.	.	.	.	.
.	.	.	4c\	-nus	.	2A/	.	.	.	.	.
.	.	.	2c\	te-	.	.	.	.	.	.	.
.	.	.	.	.	.	1B-	.	.	1d	.	.
.	.	.	8B-\L	.	.	.	.	.	.	.	.
.	.	.	8A\J	.	.	.	.	.	.	.	.
.	.	.	1B-\	.	.	.	.	.	.	.	.
*	*	*	*	*	*	*	*	*	*Xlig	*	*
=13-	=13-	=13-	=13-	=13-	=13-	=13-	=13-	=13-	=13-	=13-	=13-
2r	.	.	.	.	.	2Fny/	-cum	.	2c,</	-cum	.
*	*	*	*	*	*	*	*	*	*	*ij	*
!	!	!	!	!	!	!	!	!	!LO:TX:a:t=P:problem:kreska pseudotaktowa	!	!
2.F\	Do-	.	4A\	.	.	4F/	Do-	.	2f\	Do-	.
!	!	!	!LO:TX:a:t=P:problem:kreska pseudotaktowa	!	!	!LO:TX:a:t=P:problem:kreska pseudotaktowa	!	!	!	!	!
.	.	.	4B-\	.	.	4G/	.	.	.	.	.
.	.	.	2c\	.	.	4A/	.	.	2c/	-mi-	.
4F\	-mi-	.	.	.	.	4B-\	.	.	.	.	.
!LO:TX:a:t=P:problem:kreska pseudotaktowa	!	!	!LO:TX:a:t=P:problem:kreska pseudotaktowa	!	!	!	!	!	!	!	!
!	!	!	!LO:SIC:v:t=custos G	!	!	!	!	!	!	!	!
2E-X\	-nus	.	2G/	-cum	.	4.c\	.	.	2e-X\	-nus	.
.	.	.	.	.	.	8c\	mi-	.	.	.	.
!	!	!	!LO:LB:g=original	!	!	!	!	!	!	!	!
=14-	=14-	=14-	=14-	=14-	=14-	=14-	=14-	=14-	=14-	=14-	=14-
!	!	!	!	!	!	!LO:N:acc=#	!	!	!	!	!
0.G	te-	.	2.G/	Do-	.	2Bn\	-n(us)	.	2d\	te-	.
!	!	!	!	!	!	!	!	!	!LO:TX:a:t=P:problem:kreska pseudotaktowa	!	!
.	.	.	.	.	.	4.e-X\	Do-	.	2c/	.	.
!	!	!	!LO:TX:a:t=P:problem:kreska pseudotaktowa	!	!	!	!	!	!	!	!
.	.	.	4A/	.	.	.	.	.	.	.	.
!	!	!	!	!	!	!LO:TX:a:t=P:problem:kreska pseudotaktowa	!	!	!	!	!
.	.	.	.	.	.	8e-\	-mi-	.	.	.	.
!	!	!	!LO:TX:t=P:problem:♯ above	!	!	!	!	!	!	!	!
!	!	!	!LO:N:acc=#	!	!	!	!	!	!	!	!
.	.	.	4.Bn\	-mi-	.	2d\	-n(us)	.	0g	.	.
.	.	.	8B\	-nus	.	.	.	.	.	.	.
!	!	!	!LO:TX:a:t=P:problem:kreska pseudotaktowa	!	!	!	!	!	!	!	!
.	.	.	2e-X\	te-	.	2.c\	te-	.	.	.	.
=15-	=15-	=15-	=15-	=15-	=15-	=15-	=15-	=15-	=15-	=15-	=15-
.	.	.	1d	.	.	.	.	.	.	.	.
!	!	!	!	!	!	!LO:TX:t=P:problem:♯ above	!	!	!	!	!
!	!	!	!	!	!	!LO:N:acc=#	!	!	!	!	!
.	.	.	.	.	.	8Bn\L	.	.	.	.	.
.	.	.	.	.	.	8A\J	.	.	.	.	.
!	!	!	!	!	!	!LO:TX:a:t=P:problem:kreska pseudotaktowa	!	!	!	!	!
!	!	!	!	!	!	!LO:TX:t=P:problem:♯ above	!	!	!	!	!
!	!	!	!	!	!	!LO:N:acc=#	!	!	!	!	!
.	.	.	.	.	.	2Bn\	.	.	.	.	.
!	!	!	!	!	!	!	!	!	!LO:TX:a:t=P:problem:kreska pseudotaktowa	!	!
2C/	-cu(m),	.	2c\	-cum	.	2c\	-cum	.	1g	-cum	.
*	*	*	*	*	*	*	*	*	*	*Xij	*
1C/	be-	.	4c\	be-	.	4C/	be-	.	.	.	.
!	!	!	!LO:TX:a:t=P:problem:kreska pseudotaktowa	!	!	!LO:TX:a:t=P:problem:kreska pseudotaktowa	!	!	!	!	!
.	.	.	4B-y\	.	.	4D/	.	.	.	.	.
=16-	=16-	=16-	=16-	=16-	=16-	=16-	=16-	=16-	=16-	=16-	=16-
!	!	!	!	!	!	!LO:SIC:v:s=4E-	!	!	!	!	!
.	.	.	4G\	-ne-	.	4E/	-ne-	.	0r	.	.
.	.	.	4A\	.	.	4F/	.	.	.	.	.
!LO:TX:a:t=P:problem:kreska pseudotaktowa	!	!	!	!	!	!	!	!	!	!	!
2BB-/	-ne-	.	4.B-\	-di-	.	2.G/	-di-	.	.	.	.
!	!	!	!LO:TX:a:t=P:problem:kreska pseudotaktowa	!	!	!	!	!	!	!	!
.	.	.	8B-\	cta	.	.	.	.	.	.	.
2.D/	-di-	.	2.A\	.	.	.	.	.	.	.	.
!	!	!	!	!	!	!LO:TX:b:t=P:problem:♯ below	!	!	!	!	!
.	.	.	.	.	.	8F#X/L	.	.	.	.	.
.	.	.	.	.	.	8E/J	.	.	.	.	.
.	.	.	.	.	.	4.F#/	.	.	.	.	.
4D/	-cta	.	4A\	tu	.	.	.	.	.	.	.
!	!	!	!	!	!	!LO:TX:a:t=P:problem:kreska pseudotaktowa	!	!	!	!	!
.	.	.	.	.	.	8F#/	-cta	.	.	.	.
=17-	=17-	=17-	=17-	=17-	=17-	=17-	=17-	=17-	=17-	=17-	=17-
!	!	!	!LO:TX:a:t=P:problem:kreska pseudotaktowa	!	!	!	!	!	!	!	!
2GG/	tu,	.	1B-	.	.	2G/	tu	.	2.g\	be-	.
*	*	*	*	*	*	*	*ij	*	*	*	*
1G	be-	.	.	.	.	4G/	be-	.	.	.	.
.	.	.	.	.	.	4A/	.	.	8f\L	.	.
!	!	!	!	!	!	!	!	!	!LO:TX:a:t=P:problem:kreska pseudotaktowa	!	!
.	.	.	.	.	.	.	.	.	8eny\J	.	.
.	.	.	0r	.	.	4B-y\	-ne-	.	4d\	.	.
.	.	.	.	.	.	4c\	.	.	4e\	.	.
!LO:TX:a:t=P:problem:kreska pseudotaktowa	!	!	!	!	!	!	!	!	!	!	!
2F\	-ne-	.	.	.	.	2.d\	-di-	.	4.f\	-ne-	.
!	!	!	!	!	!	!	!	!	!LO:TX:a:t=P:problem:kreska pseudotaktowa	!	!
.	.	.	.	.	.	.	.	.	8f\	-di-	.
=18-	=18-	=18-	=18-	=18-	=18-	=18-	=18-	=18-	=18-	=18-	=18-
2.A\	-di-	.	.	.	.	.	.	.	2.e\	.	.
!	!	!	!	!	!	!LO:SIC:v:s=8c#	!	!	!	!	!
.	.	.	.	.	.	8c\L	.	.	.	.	.
!	!	!	!	!	!	!LO:SIC:v:t=custos c	!	!	!	!	!
!	!	!	!	!	!	!LO:TX:t=P:problem:♯ above	!	!	!	!	!
!	!	!	!	!	!	!LO:N:acc=#	!	!	!	!	!
.	.	.	.	.	.	8Bn\J	.	.	.	.	.
!	!	!	!	!	!	!LO:LB:g=original	!	!	!	!	!
!	!	!	!	!	!	!LO:SIC:v:s=4.c#	!	!	!	!	!
.	.	.	.	.	.	4.c\	.	.	.	.	.
4A\	-cta	.	.	.	.	.	.	.	4e\	-cta	.
!	!	!	!	!	!	!LO:TX:a:t=P:problem:kreska pseudotaktowa	!	!	!	!	!
!	!	!	!	!	!	!LO:SIC:v:s=8c#	!	!	!	!	!
.	.	.	.	.	.	8c\	-cta	.	.	.	.
2D/	tu	.	2r	.	.	2d\	tu	.	2f\	tu	.
*	*ij	*	*	*	*	*	*Xij	*	*	*ij	*
1BB-/	be-	.	1B-\	be-	.	1d\	be-	.	1f\	be-	.
=19-	=19-	=19-	=19-	=19-	=19-	=19-	=19-	=19-	=19-	=19-	=19-
.	.	.	.	.	.	.	.	.	.	.	.
!	!	!	!LO:TX:a:t=P:problem:kreska pseudotaktowa	!	!	!	!	!	!	!	!
2AA/	-ne-	.	2c\	-ne-	.	4c\	-ne-	.	2f\	-ne-	.
.	.	.	.	.	.	2c\	-di-	.	.	.	.
2.BB-/	-di-	.	2.d\	-di-	.	.	.	.	2.f\	-di-	.
.	.	.	.	.	.	8B-y\L	.	.	.	.	.
.	.	.	.	.	.	8A\J	.	.	.	.	.
.	.	.	.	.	.	4.B-\	.	.	.	.	.
!LO:TX:a:t=P:problem:kreska pseudotaktowa	!	!	!	!	!	!	!	!	!	!	!
4BB-/	-cta	.	4d\	-cta	.	.	.	.	4f\	-cta	.
!	!	!	!	!	!	!LO:TX:a:t=P:problem:kreska pseudotaktowa	!	!	!	!	!
.	.	.	.	.	.	8B-\	-cta	.	.	.	.
=20-	=20-	=20-	=20-	=20-	=20-	=20-	=20-	=20-	=20-	=20-	=20-
!	!	!	!	!	!	!	!	!	!LO:TX:a:t=P:problem:kreska pseudotaktowa	!	!
2FF;/	tu	.	2c\	tu	.	4A\	tu	.	1f	tu	.
*	*Xij	*	*	*	*	*	*	*	*	*Xij	*
.	.	.	.	.	.	4c\	in	.	.	.	.
!	!	!	!LO:TX:a:t=P:problem:kreska pseudotaktowa	!	!	!	!	!	!	!	!
4r	.	.	2r	.	.	4.d\	Mu-	.	.	.	.
!LO:SIC:v:t=custos G	!	!	!	!	!	!	!	!	!	!	!
4F\	in	.	.	.	.	.	.	.	.	.	.
!	!	!	!	!	!	!LO:TX:a:t=P:problem:kreska pseudotaktowa	!	!	!	!	!
.	.	.	.	.	.	8c\	.	.	.	.	.
!LO:LB:g=original	!	!	!	!	!	!	!	!	!	!	!
4.G\	mu-	.	1r	.	.	4.B-\	.	.	2r	.	.
8F\	-li-	.	.	.	.	8A/	-li-	.	.	.	.
4E-X\	-e-	.	.	.	.	8G/L	-e-	.	4r	.	.
.	.	.	.	.	.	8A/	.	.	.	.	.
!LO:TX:a:t=P:problem:kreska pseudotaktowa	!	!	!	!	!	!	!	!	!LO:TX:a:t=P:problem:kreska pseudotaktowa	!	!
4D/	.	.	.	.	.	8B-/	.	.	4f\	in	.
!	!	!	!	!	!	!LO:TX:a:t=P:problem:kreska pseudotaktowa	!	!	!	!	!
.	.	.	.	.	.	8A/J	.	.	.	.	.
=21-	=21-	=21-	=21-	=21-	=21-	=21-	=21-	=21-	=21-	=21-	=21-
4.E-\	.	.	2r	.	.	8G/L	.	.	4.g\	mu-	.
.	.	.	.	.	.	8A/J	.	.	.	.	.
.	.	.	.	.	.	2B-\	.	.	.	.	.
8F\L	.	.	.	.	.	.	.	.	8f\	-li-	.
8G\	.	.	4r	.	.	.	.	.	4e-X\	-e-	.
8A\J	.	.	.	.	.	.	.	.	.	.	.
!LO:TX:a:t=P:problem:kreska pseudotaktowa	!	!	!LO:TX:a:t=P:problem:kreska pseudotaktowa	!	!	!LO:TX:a:t=P:problem:kreska pseudotaktowa	!	!	!LO:TX:a:t=P:problem:kreska pseudotaktowa	!	!
4B-\	.	.	4f\	in	.	4B-\	ri-	.	4d\	.	.
2E-X\	.	.	(8e-X\L	mu-	.	2B-\	-bus	.	8g\L	.	.
.	.	.	8d\J)	.	.	.	.	.	8f\	.	.
.	.	.	(8c\L	-li-	.	.	.	.	8e-X\	.	.
!	!	!	!	!	!	!	!	!	!LO:SIC:v:t=custos c	!	!
.	.	.	8B-\J)	.	.	.	.	.	8d\J	.	.
!	!	!	!	!	!	!	!	!	!LO:LB:g=original	!	!
4.F\	.	.	4.A/	-e-	.	4r	.	.	4.c/	.	.
!	!	!	!	!	!	!LO:TX:a:t=P:problem:kreska pseudotaktowa	!	!	!	!	!
.	.	.	.	.	.	4c\	in	.	.	.	.
!LO:TX:a:t=P:problem:kreska pseudotaktowa	!	!	!LO:TX:a:t=P:problem:kreska pseudotaktowa	!	!	!	!	!	!LO:TX:a:t=P:problem:kreska pseudotaktowa	!	!
8F\	-ri-	.	8A/	-ri-	.	.	.	.	8c/	-ri-	.
=22-	=22-	=22-	=22-	=22-	=22-	=22-	=22-	=22-	=22-	=22-	=22-
!	!	!	!LO:SIC:v:t=custos c	!	!	!	!	!	!	!	!
2BB-/	-bus	.	2B-\	-bus	.	4.d\	Mu-	.	2B-/	-bus	.
.	.	.	.	.	.	8c\	.	.	.	.	.
!LO:TX:a:t=P:problem:kreska pseudotaktowa	!	!	!LO:LB:g=original	!	!	!	!	!	!	!	!
2r	.	.	4r	.	.	4B-\	.	.	4r	.	.
*	*	*	*	*ij	*	*	*	*	*	*ij	*
!	!	!	!LO:TX:a:t=P:problem:kreska pseudotaktowa	!	!	!LO:TX:a:t=P:problem:kreska pseudotaktowa	!	!	!LO:TX:a:t=P:problem:kreska pseudotaktowa	!	!
.	.	.	4c\	in	.	4A/	-li-	.	4f\	in	.
1r	.	.	8.B-\	mu-	.	2G/	-e-	.	4.g\	mu-	.
.	.	.	16c\	-li-	.	.	.	.	.	.	.
.	.	.	2d\	-e-	.	.	.	.	.	.	.
.	.	.	.	.	.	.	.	.	8f\	-li-	.
!	!	!	!	!	!	!LO:TX:a:t=P:problem:kreska pseudotaktowa	!	!	!	!	!
.	.	.	.	.	.	[y2A/	-ri-	.	4.eny\	-e-	.
!	!	!	!LO:TX:a:t=P:problem:kreska pseudotaktowa	!	!	!	!	!	!	!	!
!	!	!	!LO:TX:t=P:problem:♯ above	!	!	!	!	!	!	!	!
.	.	.	4c#X\	.	.	.	.	.	.	.	.
!	!	!	!	!	!	!	!	!	!LO:TX:a:t=P:problem:kreska pseudotaktowa	!	!
.	.	.	.	.	.	.	.	.	8e\	-ri-	.
=23-	=23-	=23-	=23-	=23-	=23-	=23-	=23-	=23-	=23-	=23-	=23-
!	!	!	!	!	!	!LO:N:xstem:cue	!	!	!	!	!
*	*ij	*	*	*	*	*	*	*	*	*	*
2D/	in	.	4d\	-ri-	.	4A\]	.	.	4f\	.	.
.	.	.	4d\	-bus	.	4A/	-bus	.	4f\	-bus	.
*	*	*	*	*	*	*	*ij	*	*	*Xij	*
4.E-X\	mu-	.	8B-\L	in	.	1G	Mu-	.	4.g\	.	.
.	.	.	8G\	.	.	.	.	.	.	.	.
.	.	.	8A\	.	.	.	.	.	.	.	.
!LO:TX:a:t=P:problem:kreska pseudotaktowa	!	!	!LO:TX:a:t=P:problem:kreska pseudotaktowa	!	!	!	!	!	!LO:TX:a:t=P:problem:kreska pseudotaktowa	!	!
8D/	-li-	.	8B-\J	.	.	.	.	.	8f\	in	.
2C/	-e-	.	4.cny\	mu-	.	.	.	.	4.e-X\	mu-	.
.	.	.	8c\	-li-	.	.	.	.	8f\	-li-	.
!LO:N:acc=#	!	!	!	!	!	!LO:TX:a:t=P:problem:kreska pseudotaktowa	!	!	!	!	!
2BBn/	.	.	1d\	-e-	.	2G/	-li-	.	4.g\	-e-	.
!	!	!	!	!	!	!	!	!	!LO:TX:a:t=P:problem:kreska pseudotaktowa	!	!
.	.	.	.	.	.	.	.	.	8f\	-ri-	.
=24-	=24-	=24-	=24-	=24-	=24-	=24-	=24-	=24-	=24-	=24-	=24-
2.C/	.	.	.	.	.	2.G/	-e-	.	2.e-X\	.	.
.	.	.	2c\	-ri-	.	.	.	.	.	.	.
4C/	ri-	.	.	.	.	4G/	-ri-	.	4e-\	bus	.
!	!	!	!	!	!	!LO:SIC:v:t=custos G	!	!	!	!	!
!LO:TX:a:t=P:problem:kreska pseudotaktowa	!	!	!	!	!	!LO:TX:a:t=P:problem:kreska pseudotaktowa	!	!	!LO:TX:a:t=P:problem:kreska pseudotaktowa	!	!
!	!	!	!LO:N:acc=#	!	!	!	!	!	!	!	!
1GG	-bus	.	1Bn	-bus	.	1G/	-bus	.	1d	.	.
*	*Xij	*	*	*Xij	*	*	*Xij	*	*	*	*
!	!	!	!	!	!	!LO:PB:g=original	!	!	!	!	!
=25-	=25-	=25-	=25-	=25-	=25-	=25-	=25-	=25-	=25-	=25-	=25-
*M3/1	*	*	*M3/1	*	*	*M3/1	*	*	*M3/1	*	*
!LO:TX:a:t=P:problem:kreska pseudotaktowa	!	!	!LO:TX:a:t=P:problem:kreska pseudotaktowa	!	!	!	!	!	!	!	!
!LO:N:vis=0	!	!	!LO:N:vis=0	!	!	!	!	!	!LO:TX:t=P:problem:podział dwudzielny brevis	!	!
0.r	.	.	0.r	.	.	1G	et	.	1g	et	.
.	.	.	.	.	.	1B-	be-	.	1d	be-	.
!	!	!	!	!	!	!LO:TX:a:t=P:problem:kreska pseudotaktowa	!	!	!LO:TX:a:t=P:problem:kreska pseudotaktowa	!	!
.	.	.	.	.	.	1c	-ne-	.	1eny	-ne-	.
=26-	=26-	=26-	=26-	=26-	=26-	=26-	=26-	=26-	=26-	=26-	=26-
!	!	!	!	!	!	!LO:TX:a:t=P:problem:kreska pseudotaktowa	!	!	!	!	!
1D	et	.	1d	et	.	0.d	-di-	.	0f	-di-	.
1F	be-	.	1A	be-	.	.	.	.	.	.	.
!LO:TX:a:t=P:problem:kreska pseudotaktowa	!	!	!LO:TX:a:t=P:problem:kreska pseudotaktowa	!	!	!	!	!	!LO:TX:a:t=P:problem:kreska pseudotaktowa	!	!
1G	-ne-	.	1B-ny	-ne-	.	.	.	.	1e	-ctus	.
=27-	=27-	=27-	=27-	=27-	=27-	=27-	=27-	=27-	=27-	=27-	=27-
1.A	-di-	.	1.A	-di-	.	1c#X	-ctus	.	1.e	frŭ-	.
.	.	.	.	.	.	2c#\	fru-	.	.	.	.
2A\	-ct(us)	.	2A/	-ctus	.	2d\	.	.	2f\	ctus	.
!	!	!	!	!	!	!LO:TX:a:t=P:problem:kreska pseudotaktowa	!	!	!LO:TX:a:t=P:problem:kreska pseudotaktowa	!	!
2.E\	fru-	.	2.G/	fru-	.	1eny	-ctus	.	1g	ven-	.
!LO:SIC:v:t=custos F	!	!	!LO:TX:a:t=P:problem:kreska pseudotaktowa	!	!	!	!	!	!	!	!
4E\	-ct(us)	.	4G/	-ct(us)	.	.	.	.	.	.	.
!LO:LB:g=original	!	!	!	!	!	!	!	!	!	!	!
=28-	=28-	=28-	=28-	=28-	=28-	=28-	=28-	=28-	=28-	=28-	=28-
2.F\	ven-	.	2.A/	ven-	.	1d	ven-	.	1f	-tris	.
4G\	-tris	.	4A/	-tris	.	.	.	.	.	.	.
*	*	*	*	*	*	*lig	*	*	*	*	*
!LO:TX:a:t=P:problem:kreska pseudotaktowa	!	!	!	!	!	!	!	!	!	!	!
0A	tu-	.	0A	tu-	.	1d	-tris	.	0e	tu-	.
!	!	!	!	!	!	!LO:TX:a:t=P:problem:kreska pseudotaktowa	!	!	!	!	!
!	!	!	!	!	!	!LO:TX:t=P:problem:♯ above	!	!	!	!	!
.	.	.	.	.	.	1c#X	tu-	.	.	.	.
*	*	*	*	*	*	*Xlig	*	*	*	*	*
=29-	=29-	=29-	=29-	=29-	=29-	=29-	=29-	=29-	=29-	=29-	=29-
!LO:TX:a:t=P:problem:kreska pseudotaktowa	!	!	!LO:TX:a:t=P:problem:kreska pseudotaktowa	!	!	!LO:TX:a:t=P:problem:kreska pseudotaktowa	!	!	!LO:TX:a:t=P:problem:kreska pseudotaktowa	!	!
!	!	!	!	!	!	!	!	!	!LO:SIC:v:t=custos g	!	!
0.D	-i	.	0.A	-i	.	0.d	-i	.	0.f#X	-i	.
!	!	!	!	!	!	!	!	!	!LO:PB:g=original	!	!
=30-	=30-	=30-	=30-	=30-	=30-	=30-	=30-	=30-	=30-	=30-	=30-
!LO:N:acc=#	!	!	!	!	!	!	!	!	!	!	!
0BBn	Je-	.	0G	Je-	.	0d	Je-	.	1r	.	.
.	.	.	.	.	.	.	.	.	1.g	Je-	.
!	!	!	!LO:TX:a:t=P:problem:kreska pseudotaktowa	!	!	!	!	!	!	!	!
!	!	!	!LO:SIC:v:t=custos G	!	!	!LO:TX:a:t=P:problem:kreska pseudotaktowa	!	!	!	!	!
1BB	-sus	.	1G	-ſus	.	1d	-sus	.	.	.	.
!	!	!	!	!	!	!	!	!	!LO:TX:a:t=P:problem:kreska pseudotaktowa	!	!
.	.	.	.	.	.	.	.	.	2fny\	-ſus	.
!	!	!	!LO:PB:g=original	!	!	!	!	!	!	!	!
=31-	=31-	=31-	=31-	=31-	=31-	=31-	=31-	=31-	=31-	=31-	=31-
0.C	Chri-	.	0.G	Chri-	.	1d	Chri-	.	0.e-X	Chri-	.
.	.	.	.	.	.	2c\ny	.	.	.	.	.
.	.	.	.	.	.	2B-\	.	.	.	.	.
.	.	.	.	.	.	1c	.	.	.	.	.
=32-	=32-	=32-	=32-	=32-	=32-	=32-	=32-	=32-	=32-	=32-	=32-
!LO:TX:a:t=P:problem:kreska pseudotaktowa	!	!	!LO:TX:a:t=P:problem:kreska pseudotaktowa	!	!	!LO:TX:a:t=P:problem:kreska pseudotaktowa	!	!	!	!	!
!	!	!	!	!	!	!LO:N:acc=#	!	!	!LO:TX:a:t=P:problem:kreska pseudotaktowa	!	!
0.GG	-ſtus	.	0.G	-ſt(us).	.	0.Bn	-ſtus.	.	0.d	-ſtus	.
=33-	=33-	=33-	=33-	=33-	=33-	=33-	=33-	=33-	=33-	=33-	=33-
!LO:N:vis=00	!	!	!	!	!	!LO:N:acc=#	!	!	!	!	!
00.r	.	.	1G	San-	.	1Bn	San-	.	1g	San-	.
!	!	!	!	!	!	!LO:N:acc=#	!	!	!	!	!
.	.	.	1c	-cta	.	1en	cta	.	1.g	-cta	.
!	!	!	!LO:TX:a:t=P:problem:kreska pseudotaktowa	!	!	!LO:TX:a:t=P:problem:kreska pseudotaktowa	!	!	!	!	!
.	.	.	1B-	Ma-	.	1d	Ma-	.	.	.	.
!	!	!	!	!	!	!	!	!	!LO:TX:a:t=P:problem:kreska pseudotaktowa	!	!
.	.	.	.	.	.	.	.	.	2g\	Ma-	.
=34-	=34-	=34-	=34-	=34-	=34-	=34-	=34-	=34-	=34-	=34-	=34-
.	.	.	0A	-ri	.	0f	-ri-	.	0a	-ri-	.
!	!	!	!LO:TX:a:t=P:problem:kreska pseudotaktowa	!	!	!LO:TX:a:t=P:problem:kreska pseudotaktowa	!	!	!	!	!
!	!	!	!	!	!	!LO:SIC:v:t=custos d	!	!	!LO:TX:a:t=P:problem:kreska pseudotaktowa	!	!
.	.	.	1B-	-a	.	1d	-a	.	1f	-a	.
!	!	!	!	!	!	!LO:LB:g=original	!	!	!	!	!
=35-	=35-	=35-	=35-	=35-	=35-	=35-	=35-	=35-	=35-	=35-	=35-
!LO:N:vis=00	!	!	!	!	!	!	!	!	!	!	!
00.r	.	.	1B-	Ma-	.	1d	San-	[[o-	1f	San-	[[o-
.	.	.	1.c	-ter	.	1.c	-cta	-ra	1.eny	-cta	-ra
!	!	!	!LO:TX:a:t=P:problem:kreska pseudotaktowa	!	!	!LO:TX:a:t=P:problem:kreska pseudotaktowa	!	!	!LO:TX:a:t=P:problem:kreska pseudotaktowa	!	!
.	.	.	2A/	.	.	2c\	Ma-	pro	2f\	Ma-	.
=36-	=36-	=36-	=36-	=36-	=36-	=36-	=36-	=36-	=36-	=36-	=36-
!	!	!	!	!	!	!LO:N:acc=#	!	!	!	!	!
.	.	.	[>0.G	De-	.	1Bn	-ri-	no-	1g	-ri-	pro
!	!	!	!	!	!	!LO:N:acc=#	!	!	!	!	!
.	.	.	.	.	.	1Bn	-a	-bis	1d	-a	no-
!	!	!	!	!	!	!LO:TX:a:t=P:problem:kreska pseudotaktowa	!	!	!LO:TX:a:t=P:problem:kreska pseudotaktowa	!	!
.	.	.	.	.	.	1c	Ma-	pro	1e-X	Ma-	-bis
=37-	=37-	=37-	=37-	=37-	=37-	=37-	=37-	=37-	=37-	=37-	=37-
!LO:TX:a:t=P:problem:kreska pseudotaktowa	!	!	!	!	!	!	!	!	!	!	!
!LO:N:vis=00	!	!	!	!	!	!	!	!	!	!	!
00.r	.	.	0.G]	.	.	1c	-ter	no-	1e-	-ter	pro
!	!	!	!	!	!	!LO:TX:t=P:problem:♯ above	!	!	!	!	!
!	!	!	!	!	!	!LO:N:acc=#	!	!	!	!	!
.	.	.	.	.	.	2Bn\	De-	.	2d\	.	no-
.	.	.	.	.	.	2A\	.	.	2c\	.	.
!	!	!	!	!	!	!LO:N:acc=#	!	!	!LO:TX:a:t=P:problem:kreska pseudotaktowa	!	!
.	.	.	.	.	.	1Bn	.	.	1d	De-	.
=38-	=38-	=38-	=38-	=38-	=38-	=38-	=38-	=38-	=38-	=38-	=38-
!	!	!	!LO:TX:a:t=P:problem:kreska pseudotaktowa	!	!	!LO:TX:a:t=P:problem:kreska pseudotaktowa	!	!	!LO:TX:a:t=P:problem:kreska pseudotaktowa	!	!
!	!	!	!	!	!	!	!	!	!LO:N:acc=x	!	!
!	!	!	!	!	!	!	!	!	!LO:N:vis=0..	!	!
.	.	.	0.C	-i	.	0.c	-i	-bis]]	0.e	-i	-bis
=39-	=39-	=39-	=39-	=39-	=39-	=39-	=39-	=39-	=39-	=39-	=39-
!	!	!	!LO:N:vis=00	!	!	!	!	!	!	!	!
1C	San-	.	00.r	.	.	1e	San-	.	1g	San-	O-
1C	-cta	.	.	.	.	1e	-cta	.	1.a	-cta	-ra
!LO:TX:a:t=P:problem:kreska pseudotaktowa	!	!	!	!	!	!LO:TX:a:t=P:problem:kreska pseudotaktowa	!	!	!	!	!
1C	Ma-	.	.	.	.	1e	Ma-	.	.	.	.
!	!	!	!	!	!	!	!	!	!LO:TX:a:t=P:problem:kreska pseudotaktowa	!	!
.	.	.	.	.	.	.	.	.	2g\	Ma-	pro
=40-	=40-	=40-	=40-	=40-	=40-	=40-	=40-	=40-	=40-	=40-	=40-
!	!	!	!	!	!	!	!	!	!LO:TX:a:t=P:problem:kreska pseudotaktowa	!	!
0D	-ri-	.	.	.	.	0f	-ri-	.	0.f	-ri-	no-
!LO:TX:a:t=P:problem:kreska pseudotaktowa	!	!	!	!	!	!LO:TX:a:t=P:problem:kreska pseudotaktowa	!	!	!	!	!
1BB-ny	-a	.	.	.	.	1d	-a	.	.	.	.
=41-	=41-	=41-	=41-	=41-	=41-	=41-	=41-	=41-	=41-	=41-	=41-
!	!	!	!LO:N:vis=0	!	!	!	!	!	!	!	!
1BB-	Ma-	.	0.r	.	.	1d	Ma-	[[O-	0f	-a	-bis
1.AA	ter	[[o-	.	.	.	1.c	-ter	-ra	.	.	.
*	*	*	*	*	*	*	*	*	*	*	*ij
.	.	.	.	.	.	.	.	.	1f	Ma-	o-
!LO:TX:a:t=P:problem:kreska pseudotaktowa	!	!	!	!	!	!	!	!	!	!	!
2BB-/	Ma-	-ra	.	.	.	2d\	Ma-	pro	.	.	.
=42-	=42-	=42-	=42-	=42-	=42-	=42-	=42-	=42-	=42-	=42-	=42-
!	!	!	!	!	!	!LO:TX:a:t=P:problem:kreska pseudotaktowa	!	!	!	!	!
[>0.C	-ter	pro	1c	Ma-	[[O-	(<0.G	-ter	no-	0e	-ter	-ra
.	.	.	1.B-	-ter	-ra	.	.	.	.	.	.
!	!	!	!	!	!	!	!	!	!LO:TX:a:t=P:problem:kreska pseudotaktowa	!	!
!	!	!	!	!	!	!	!	!	!LO:SIC:v:t=custos f	!	!
.	.	.	.	.	.	.	.	.	1e	Ma-	pro
!	!	!	!LO:TX:a:t=P:problem:kreska pseudotaktowa	!	!	!	!	!	!	!	!
.	.	.	2c\	Ma-	.	.	.	.	.	.	.
!	!	!	!	!	!	!	!	!	!LO:LB:g=original	!	!
=43-	=43-	=43-	=43-	=43-	=43-	=43-	=43-	=43-	=43-	=43-	=43-
0.C]	De-	no-	1A	-ter	pro	(0.c)	De-	.	0f	-ter	no-
.	.	.	0G	De-	no-	.	.	.	.	.	.
.	.	.	.	.	.	.	.	.	1e	De-	.
=44-	=44-	=44-	=44-	=44-	=44-	=44-	=44-	=44-	=44-	=44-	=44-
!LO:TX:a:t=P:problem:kreska pseudotaktowa	!	!	!	!	!	!	!	!	!	!	!
0.FF	-i	-bis]]	0.A	-i	-bis]]	0.c)	-i	-bis]]	0.f	-i	-bis]]
*	*	*	*	*	*	*	*	*	*	*	*Xij
=45-	=45-	=45-	=45-	=45-	=45-	=45-	=45-	=45-	=45-	=45-	=45-
*M2/1	*	*	*M2/1	*	*	*M2/1	*	*	*M2/1	*	*
*met(c|)	*	*	*met(c|)	*	*	*met(c|)	*	*	*met(c|)	*	*
!	!	!	!	!	!	!	!	!	!LO:TX:t=P:problem:♯ above	!	!
4D/	O-	.	4A/	O-	.	4d\	O-	.	4f#\	O-	.
8D/	-ra	.	8A/	-ra	.	8d\	-ra	.	8f#\	-ra	.
8D/	pro	.	8A/	pro	.	8d\	pro	.	8f#\	pro	.
4.D/	no-	.	4.A/	no-	.	4.d\	no-	.	4.f#\	no-	.
!LO:TX:a:t=P:problem:kreska pseudotaktowa	!	!	!LO:TX:a:t=P:problem:kreska pseudotaktowa	!	!	!LO:TX:a:t=P:problem:kreska pseudotaktowa	!	!	!LO:TX:a:t=P:problem:kreska pseudotaktowa	!	!
!LO:SIC:v:t=custos GG	!	!	!LO:SIC:v:t=custos B	!	!	!LO:SIC:v:t=custos d	!	!	!	!	!
8D/	bis	.	8A/	-bis	.	8d\	-bis	.	8f#\	-bis	.
!LO:LB:g=original	!	!	!LO:LB:g=original	!	!	!LO:LB:g=original	!	!	!	!	!
2GG/	pec-	.	4.B-\	pec-	.	2.d\	pec-	.	2g\	pec-	.
.	.	.	8B-\	-ca-	.	.	.	.	.	.	.
!	!	!	!LO:TX:a:t=P:problem:kreska pseudotaktowa	!	!	!	!	!	!LO:TX:a:t=P:problem:kreska pseudotaktowa	!	!
2FF#X/	-ca-	.	2.A/	-to-	.	.	.	.	2d\	-ca-	.
!	!	!	!	!	!	!LO:TX:a:t=P:problem:kreska pseudotaktowa	!	!	!	!	!
.	.	.	.	.	.	4c\	-ca-	.	.	.	.
=46-	=46-	=46-	=46-	=46-	=46-	=46-	=46-	=46-	=46-	=46-	=46-
2.GG/	-to-	.	.	.	.	2.B-\	-to-	.	2.d\	-to-	.
.	.	.	8G/L	.	.	.	.	.	.	.	.
.	.	.	8Fny/J	.	.	.	.	.	.	.	.
.	.	.	4.G/	.	.	.	.	.	.	.	.
4GG/	-ri-	.	.	.	.	4B-\	-ri-	.	4d\	-ri-	.
.	.	.	8G/	-ri-	.	.	.	.	.	.	.
!LO:TX:a:t=P:problem:kreska pseudotaktowa	!	!	!LO:TX:a:t=P:problem:kreska pseudotaktowa	!	!	!LO:TX:a:t=P:problem:kreska pseudotaktowa	!	!	!LO:TX:a:t=P:problem:kreska pseudotaktowa	!	!
1D	-bus	.	1F	-bus	.	1A	-bus	.	1d	-b(us)	.
=47-	=47-	=47-	=47-	=47-	=47-	=47-	=47-	=47-	=47-	=47-	=47-
4r	.	.	4r	.	.	4r	.	.	4r	.	.
4BB-/	nunc	.	4B-\	nunc	.	4d\	nunc	.	4fny\	nunc	.
!	!	!	!	!	!	!	!	!	!LO:TX:t=P:problem:♯ above	!	!
4.AA/	et	.	4c\	et	.	4.c\	et	.	4.f#X\	et	.
!	!	!	!LO:TX:a:t=P:problem:kreska pseudotaktowa	!	!	!	!	!	!	!	!
.	.	.	4A\	in	.	.	.	.	.	.	.
!LO:TX:a:t=P:problem:kreska pseudotaktowa	!	!	!	!	!	!LO:TX:a:t=P:problem:kreska pseudotaktowa	!	!	!LO:TX:a:t=P:problem:kreska pseudotaktowa	!	!
8AA/	in	.	.	.	.	8c\	in	.	8f#\	in	.
2GG/	ho-	.	2B-\	ho-	.	2d\	.	.	4.g\	ho-	.
.	.	.	.	.	.	.	.	.	8g\	-ra	.
!	!	!	!LO:TX:a:t=P:problem:kreska pseudotaktowa	!	!	!	!	!	!	!	!
2FF#X/	ra	.	2A/	.	.	2d\	ho-	.	1a\	mor-	.
=48-	=48-	=48-	=48-	=48-	=48-	=48-	=48-	=48-	=48-	=48-	=48-
!LO:TX:a:t=P:problem:kreska pseudotaktowa	!	!	!	!	!	!	!	!	!	!	!
!LO:TX:t=P:problem:alternatywna melodia oktawę wyżej (4 dźwięki)	!	!	!	!	!	!LO:TX:a:t=P:problem:kreska pseudotaktowa	!	!	!	!	!
1GG	mor-	.	1B-	-ra	.	1d	-ra	.	.	.	.
!	!	!	!	!	!	!	!	!	!LO:TX:a:t=P:problem:kreska pseudotaktowa	!	!
.	.	.	.	.	.	.	.	.	2g\	.	.
1FFny	-tis	.	2A/	mor-	.	2d\	mor-	.	2a\	.	.
.	.	.	1B-\	-tis	.	1d\	-tis	.	2d\	-tis	.
=49-	=49-	=49-	=49-	=49-	=49-	=49-	=49-	=49-	=49-	=49-	=49-
1EE-X	no-	.	.	.	.	.	.	.	1g	no-	.
.	.	.	4A/	no-	.	2c\	no-	.	.	.	.
.	.	.	4G/	.	.	.	.	.	.	.	.
!	!	!	!	!	!	!	!	!	!LO:TX:a:t=P:problem:kreska pseudotaktowa	!	!
1DD	-ſtrae	.	1A	-ſtrae.	.	1d	-ſtrae	.	1f#X	-ſtrae	.
=50-	=50-	=50-	=50-	=50-	=50-	=50-	=50-	=50-	=50-	=50-	=50-
*M3/1	*	*	*M3/1	*	*	*M3/1	*	*	*M3/1	*	*
!	!	!	!	!	!	!	!	!	!LO:N:acc=-	!	!
0BB-	A-	.	0d	A-	.	1r	.	.	0fn	A-	.
.	.	.	.	.	.	1B-	A-	.	.	.	.
!LO:TX:a:t=P:problem:kreska pseudotaktowa	!	!	!LO:TX:a:t=P:problem:kreska pseudotaktowa	!	!	!LO:TX:a:t=P:problem:kreska pseudotaktowa	!	!	!LO:TX:a:t=P:problem:kreska pseudotaktowa	!	!
1F	.	.	1c	.	.	1A	-men	.	1f	-men	.
=51-	=51-	=51-	=51-	=51-	=51-	=51-	=51-	=51-	=51-	=51-	=51-
*lig	*	*	*lig	*	*	*	*ij	*	*lig	*ij	*
1G	.	.	1B-	-men	.	0G	A-	.	1d	A-	.
1C	.	.	1c	.	.	.	.	.	1e-X	.	.
*Xlig	*	*	*Xlig	*	*	*	*	*	*Xlig	*	*
!LO:TX:a:t=P:problem:kreska pseudotaktowa	!	!	!LO:TX:a:t=P:problem:kreska pseudotaktowa	!	!	!LO:TX:a:t=P:problem:kreska pseudotaktowa	!	!	!LO:TX:a:t=P:problem:kreska pseudotaktowa	!	!
!	!	!	!	!	!	!LO:TX:t=P:problem:♯ above	!	!	!LO:SIC:v:t=custos d	!	!
1D	.	.	1A	A-	.	1F#X	-men	.	1d	-men	.
*	*	*	*	*	*	*	*	*	*	*Xij	*
!	!	!	!	!	!	!	!	!	!LO:LB:g=original	!	!
=52-	=52-	=52-	=52-	=52-	=52-	=52-	=52-	=52-	=52-	=52-	=52-
1GG	.	.	1B-	.	.	1G	A-	.	0d	A-	.
*	*	*	*	*	*	*lig	*	*	*	*	*
1GG,<	-men	.	1B-	-men	.	1G	-men	.	.	.	.
*	*	*	*	*ij	*	*	*Xij	*	*	*	*
!LO:TX:a:t=P:problem:kreska pseudotaktowa	!	!	!LO:TX:a:t=P:problem:kreska pseudotaktowa	!	!	!	!	!	!LO:TX:a:t=P:problem:kreska pseudotaktowa	!	!
!	!	!	!	!	!	!LO:TX:b:t=P:problem:♯ below	!	!	!	!	!
1D	A-	.	1A	A-	.	1F#X	.	.	1d	-men	.
*	*	*	*	*	*	*Xlig	*	*	*	*	*
=53-	=53-	=53-	=53-	=53-	=53-	=53-	=53-	=53-	=53-	=53-	=53-
*	*	*	*	*	*	*	*	*	*	*ij	*
2GG/	-men	.	(2B-\	.	.	2G/	A-	.	00.d	A-	.
2AA/	.	.	2c\)	.	.	4Fny/	.	.	.	.	.
.	.	.	.	.	.	4E/	.	.	.	.	.
*	*ij	*	*	*	*	*	*	*	*	*	*
2BB-/	A-	.	2d\	men	.	2D/	.	.	.	.	.
2C/	.	.	4c\	.	.	2E/	.	.	.	.	.
.	.	.	4B-\	.	.	.	.	.	.	.	.
!LO:TX:a:t=P:problem:kreska pseudotaktowa	!	!	!	!	!	!	!	!	!	!	!
!LO:SIC:v:t=custos GG	!	!	!LO:TX:a:t=P:problem:kreska pseudotaktowa	!	!	!	!	!	!	!	!
1D	.	.	1A	A-	.	2F/	.	.	.	.	.
.	.	.	.	.	.	2D/	-men	.	.	.	.
!LO:LB:g=original	!	!	!	!	!	!	!	!	!	!	!
=54-	=54-	=54-	=54-	=54-	=54-	=54-	=54-	=54-	=54-	=54-	=54-
*	*	*	*	*	*	*	*ij	*	*	*	*
0GG	.	.	0G	.	.	0B-	A-	.	.	.	.
1FF#X	.	.	1A	.	.	0A	.	.	.	.	.
=55-	=55-	=55-	=55-	=55-	=55-	=55-	=55-	=55-	=55-	=55-	=55-
0.GG	.	.	0.B-	.	.	.	.	.	00.dl	-men	.
*	*	*	*	*	*	*	*	*	*	*Xij	*
.	.	.	.	.	.	4G/	.	.	.	.	.
.	.	.	.	.	.	4F/	.	.	.	.	.
!	!	!	!	!	!	!LO:N:vis=4:xstem	!	!	!	!	!
.	.	.	.	.	.	1.G	.	.	.	.	.
=56-	=56-	=56-	=56-	=56-	=56-	=56-	=56-	=56-	=56-	=56-	=56-
!LO:N:vis=00	!	!	!LO:N:vis=0	!	!	!LO:TX:b:t=P:problem:♯ below	!	!	!	!	!
0.Dl	-men	.	0.A;	-men	.	0.F#X;	-men	.	.	.	.
*	*Xij	*	*	*Xij	*	*	*Xij	*	*	*	*
==	==	==	==	==	==	==	==	==	==	==	==
*-	*-	*-	*-	*-	*-	*-	*-	*-	*-	*-	*-
!!!system-decoration: [s1,s2,s3,s4]
!!!RDF**kern: > = above
!!!RDF**kern: < = below
!!!RDF**kern: l = terminal long
!!!AIN: 1 alto 1 bass 1 soprn 1 tenor
!!!ENC: Marta Lawrence
!!!END: 2021-03-06
!!!ENC: Krzysztof Stępień
!!!END: 2021-02-23
